src/components/icon/twitter.svg

<?xml version="1.0" encoding="iso-8859-1"?>
<!-- Generator: Adobe Illustrator 16.0.0, SVG Export Plug-In . SVG Version: 6.00 Build 0)  -->
<!DOCTYPE svg PUBLIC "-//W3C//DTD SVG 1.1//EN" "http://www.w3.org/Graphics/SVG/1.1/DTD/svg11.dtd">
<svg version="1.1" id="Capa_1" xmlns="http://www.w3.org/2000/svg" xmlns:xlink="http://www.w3.org/1999/xlink" x="0px" y="0px"
	 width="34px" height="34px" viewBox="0 0 34 34" style="enable-background:new 0 0 34 34;" xml:space="preserve">
<g>
	<path d="M17,0C7.611,0,0,7.61,0,17c0,9.391,7.611,17,17,17c9.389,0,17-7.609,17-17C34,7.61,26.389,0,17,0z M25.902,13.957
		c0.008,0.171,0.012,0.343,0.012,0.517c0,5.286-4.023,11.383-11.383,11.383c-2.26,0-4.362-0.662-6.133-1.797
		c0.314,0.037,0.632,0.055,0.955,0.055c1.875,0,3.599-0.639,4.968-1.711c-1.75-0.033-3.228-1.189-3.736-2.777
		c0.244,0.046,0.494,0.07,0.752,0.07c0.365,0,0.719-0.049,1.053-0.141c-1.828-0.367-3.208-1.986-3.208-3.925
		c0-0.016,0-0.031,0-0.049c0.541,0.3,1.157,0.479,1.813,0.5c-1.073-0.717-1.779-1.941-1.779-3.331c0-0.731,0.197-1.42,0.542-2.011
		c1.972,2.421,4.921,4.014,8.246,4.18c-0.068-0.293-0.104-0.598-0.104-0.911c0-2.209,1.791-4,4-4c1.148,0,2.189,0.485,2.92,1.263
		c0.91-0.18,1.768-0.513,2.541-0.969c-0.299,0.934-0.935,1.717-1.758,2.211c0.809-0.096,1.58-0.311,2.297-0.629
		C27.361,12.688,26.684,13.394,25.902,13.957z"/>
</g>
<g>
</g>
<g>
</g>
<g>
</g>
<g>
</g>
<g>
</g>
<g>
</g>
<g>
</g>
<g>
</g>
<g>
</g>
<g>
</g>
<g>
</g>
<g>
</g>
<g>
</g>
<g>
</g>
<g>
</g>
</svg>

<?xml version="1.0" encoding="UTF-8" standalone="no"?>
<!DOCTYPE svg PUBLIC "-//W3C//DTD SVG 1.1//EN" "http://www.w3.org/Graphics/SVG/1.1/DTD/svg11.dtd">
<svg width="100%" height="100%" viewBox="0 0 34 34" version="1.1" xmlns="http://www.w3.org/2000/svg" xmlns:xlink="http://www.w3.org/1999/xlink" xml:space="preserve" xmlns:serif="http://www.serif.com/" style="fill-rule:evenodd;clip-rule:evenodd;stroke-linejoin:round;stroke-miterlimit:2;">
    <path d="M17,0C7.611,0 0,7.61 0,17C0,26.391 7.611,34 17,34C26.389,34 34,26.391 34,17C34,7.61 26.389,0 17,0ZM25.902,13.957C25.91,14.128 25.914,14.3 25.914,14.474C25.914,19.76 21.891,25.857 14.531,25.857C12.271,25.857 10.169,25.195 8.398,24.06C8.712,24.097 9.03,24.115 9.353,24.115C11.228,24.115 12.952,23.476 14.321,22.404C12.571,22.371 11.093,21.215 10.585,19.627C10.829,19.673 11.079,19.697 11.337,19.697C11.702,19.697 12.056,19.648 12.39,19.556C10.562,19.189 9.182,17.57 9.182,15.631L9.182,15.582C9.723,15.882 10.339,16.061 10.995,16.082C9.922,15.365 9.216,14.141 9.216,12.751C9.216,12.02 9.413,11.331 9.758,10.74C11.73,13.161 14.679,14.754 18.004,14.92C17.936,14.627 17.9,14.322 17.9,14.009C17.9,11.8 19.691,10.009 21.9,10.009C23.048,10.009 24.089,10.494 24.82,11.272C25.73,11.092 26.588,10.759 27.361,10.303C27.062,11.237 26.426,12.02 25.603,12.514C26.412,12.418 27.183,12.203 27.9,11.885C27.361,12.688 26.684,13.394 25.902,13.957Z" style="fill:rgb(27,13,78);fill-rule:nonzero;"/>
</svg>
